!!!COM: Merulo, Claudio
!!!CDT:
!!!PTL: Corona de madrigali a sei voci
!!!PPP: Venice
!!!PPR: Heir of G. Scotto
!!!PDT: 1579
!!!PUB-format: anthology
!!!RISM: 1579-2
!!!rime: 560
!!!OTL: Tarquinia, se rimiri
!!!AGN: Madrigal
!!!SCT: Trm0560d
!!!SCA: Trm0560d
!!!original-voices: 6
!!!extant-voices: 6
!!!complete: Y
!!!final: G
**kern	**text	**kern	**text	**kern	**text	**kern	**text	**kern	**text	**kern	**text
*part6	*part6	*part5	*part5	*part4	*part4	*part3	*part3	*part2	*part2	*part1	*part1
*staff6	*staff6	*staff5	*staff5	*staff4	*staff4	*staff3	*staff3	*staff2	*staff2	*staff1	*staff1
*I"Basso	*	*I"Quinto	*	*I"Tenore	*	*I"Alto	*	*I"Sesto	*	*I"Canto	*
*I'B	*	*I'V	*	*I'T	*	*I'A	*	*I'VI	*	*I'C	*
*oclefF3	*	*oclefC3	*	*oclefC3	*	*oclefC2	*	*oclefG2	*	*oclefG2	*
*clefF4	*	*clefGv2	*	*clefGv2	*	*clefG2	*	*clefG2	*	*clefG2	*
*k[b-]	*	*k[b-]	*	*k[b-]	*	*k[b-]	*	*k[b-]	*	*k[b-]	*
*omet(C)	*	*omet(C)	*	*omet(C)	*	*omet(C)	*	*omet(C)	*	*omet(C)	*
*M4/2	*	*M4/2	*	*M4/2	*	*M4/2	*	*M4/2	*	*M4/2	*
=1	=1	=1	=1	=1	=1	=1	=1	=1	=1	=1	=1
0r	.	0r	.	0r	.	2g	Men-	2dd	Men-	1r	.
.	.	.	.	.	.	4b-y	-tre	4dd	-tre	.	.
.	.	.	.	.	.	4a	mia	4cc	mia	.	.
.	.	.	.	.	.	2g	stel-	2b-y	stel-	2dd	Men-
.	.	.	.	.	.	2f#X	-la	2a	-la	4dd	-tre
.	.	.	.	.	.	.	.	.	.	4cc	mia
=2	=2	=2	=2	=2	=2	=2	=2	=2	=2	=2	=2
1r	.	0r	.	1r	.	2g	mi-	2g	mi-	2b-y	stel-
.	.	.	.	.	.	2d	-ri,	2f#X	-ri,	2a	-la
2G	Men-	.	.	2d	Men-	2b-y	<Men-	1r	.	2g	mi-
4B-y	-tre	.	.	4d	-tre	4b-y	-tre	.	.	2f	-ri,
4A	mia	.	.	4c	mia	4f	mia	.	.	.	.
=3	=3	=3	=3	=3	=3	=3	=3	=3	=3	=3	=3
2G	stel-	2d	Men-	2B-y	stel-	2g	sel-	1r	.	0r	.
2F#X	-la	4d	-tre	2A	-la	2a	-la	.	.	.	.
.	.	4c	mia	.	.	.	.	.	.	.	.
2G	mi-	2B-y	stel-	2G	mi-	1d	mi-	2dd	Men-	.	.
2D	-ri,	2A	-la	2F#X	-ri,	.	.	4dd	-tre	.	.
.	.	.	.	.	.	.	.	4cc	mia	.	.
=4	=4	=4	=4	=4	=4	=4	=4	=4	=4	=4	=4
0r	.	2G	mi-	4r	.	2d	-ri,>	2b-y	stel-	2dd	<Men-
.	.	.	.	4G	<Men-	.	.	.	.	.	.
.	.	2F#X	.	4A	-tre	2r	.	2a	-la	4dd	-tre
.	.	.	.	4A	mia	.	.	.	.	4cc	mia
.	.	2G	-ri,	4B-y	stel-	2d	Men-	2g	mi-	2b-y	stel-
.	.	.	.	4c	-la	.	.	.	.	.	.
.	.	2r	.	2d	mi-	4d	-tre	2f#X	-ri	2a	-la
.	.	.	.	.	.	4c	mia	.	.	.	.
=5	=5	=5	=5	=5	=5	=5	=5	=5	=5	=5	=5
2G	Men-	1r	.	1d	-ri,>	2B-y	stel-	4r	.	2g	mi-
.	.	.	.	.	.	.	.	4g	I	.	.
4G	-tre	.	.	.	.	4B-y	-la	4b-y	bei	2d	-ri>
4F	mia	.	.	.	.	2d	mi-	4a	ce-	.	.
2E-X	stel-	2G	Men-	2r	.	.	.	2g	-le-	1r	.
.	.	.	.	.	.	4c	.	.	.	.	.
2D	-la	4A	-tre	4r	.	2d	-ri	2f	-sti	.	.
.	.	4F	mia	4A	Men-	.	.	.	.	.	.
=6	=6	=6	=6	=6	=6	=6	=6	=6	=6	=6	=6
2C	mi-	4G	stel-	4c	-tre	2r	.	2e-X	gi-	1r	.
.	.	4A	-la	4c	mia	.	.	.	.	.	.
2G	-ri	4B-y	mi-	4d	stel-	2b-y	I	2d	-ri,	.	.
.	.	8AL	.	4e	-la	.	.	.	.	.	.
.	.	8GJ	.	.	.	.	.	.	.	.	.
1r	.	2d	.	2f	mi-	4a	bei	1r	.	4r	.
.	.	.	.	.	.	4f	ce-	.	.	4a	I
.	.	2c	-ri	2e	-ri	4g	-le-	.	.	4cc	bei
.	.	.	.	.	.	4a	-sti	.	.	4cc	ce-
=7	=7	=7	=7	=7	=7	=7	=7	=7	=7	=7	=7
2r	.	0r	.	4r	.	2b-y	gi-	2r	.	4dd	-le-
.	.	.	.	4g	I	.	.	.	.	4ee	-sti
2d	I	.	.	4f	bei	1a	-ri,	4r	.	2ff	gi-
.	.	.	.	4d	ce-	.	.	4a	<I	.	.
4c	bei	.	.	4e	-le-	.	.	4cc	bei-	2ee	-ri,
4A	ce-	.	.	4e	-sti	.	.	4cc	-ce-	.	.
4B-y	-le-	.	.	2g	gi-	2r	.	4dd	-le-	2r	.
4c	-sti	.	.	.	.	.	.	4ee	-sti-	.	.
=8	=8	=8	=8	=8	=8	=8	=8	=8	=8	=8	=8
2d	gi-	4r	.	4f	-ri,	1r	.	2ff	-gi	2a	I
.	.	4d	I	4f	I	.	.	.	.	.	.
2A	-ri,	4c	bei	4a	bei	.	.	2ee	ri>	4cc	bei
.	.	4A	ce-	4a	ce-	.	.	.	.	4cc	ce-
2r	.	4B-y	-le-	2g	-le-	2r	.	2r	.	4dd	-le-
.	.	4c	-sti	.	.	.	.	.	.	4ee	-sti
2D	Il	2d	gi-	4f	-sti	2a	Il	2dd	Il	2ff	gi-
.	.	.	.	[4a	gi-	.	.	.	.	.	.
=9	=9	=9	=9	=9	=9	=9	=9	=9	=9	=9	=9
2A	ciel'	1A	-ri,	4a]	.	2a	ciel'	2cc#X	ciel'	1ee	-ri,
.	.	.	.	8gL	.	.	.	.	.	.	.
.	.	.	.	8fJ	.	.	.	.	.	.	.
2c#X	es-	.	.	2e	.	2.a	es-	2ee	es-	.	.
2d	-ser	2r	.	1d	-ri,	.	.	4ff	-ser	1r	.
.	.	.	.	.	.	4a	-ser	4ff	vor-	.	.
2G	vor-	2d	Il	.	.	2b-y	vor-	[2dd	-re-	.	.
=10	=10	=10	=10	=10	=10	=10	=10	=10	=10	=10	=10
1A	-re-	2f	ciel'	1r	.	1a	-re-	4dd]	.	0r	.
.	.	.	.	.	.	.	.	8cc#iL	.	.	.
.	.	.	.	.	.	.	.	8bnXiJ	.	.	.
.	.	2e	es-	.	.	.	.	2cc#i	.	.	.
1D	-i,	4f	-ser	2r	.	[1a	-i;	2dd	-i,	.	.
.	.	4d	vor-	.	.	.	.	.	.	.	.
.	.	2f	-re-	2d	Il	.	.	4r	.	.	.
.	.	.	.	.	.	.	.	4dd	Il	.	.
=11	=11	=11	=11	=11	=11	=11	=11	=11	=11	=11	=11
1r	.	2e	-i,	2c#X	ciel'	1a]	.	2ee	ciel'	2r	.
.	.	4r	.	2d	es-	.	.	2ff	es-	2dd	Il
.	.	4d	<Il	.	.	.	.	.	.	.	.
2r	.	2a	ciel'	2A	-ser	1r	.	4ee	-ser	2cc#X	ciel'
.	.	.	.	.	.	.	.	4dd	vor-	.	.
2A	Il	[2a	es-	2a	vor-	.	.	2cc#X	-re-	2ee	es-
=12	=12	=12	=12	=12	=12	=12	=12	=12	=12	=12	=12
4d	ciel'	4a]	.	4.f	-re-	1r	.	1dd	-i;	4ff	-ser
4D	es-	4a	-ser	.	.	.	.	.	.	4ff	vor-
.	.	.	.	8g	.	.	.	.	.	.	.
4F	-ser	2f	vor-	2a	.	.	.	.	.	2.dd	-re-
4G	vor-	.	.	.	.	.	.	.	.	.	.
1A	-re-	1e	-re-	[1a	-i;	2r	.	1r	.	.	.
.	.	.	.	.	.	.	.	.	.	8cc#iL	.
.	.	.	.	.	.	.	.	.	.	8bnXiJ	.
.	.	.	.	.	.	2e	Per-	.	.	2cc#i	.
=13	=13	=13	=13	=13	=13	=13	=13	=13	=13	=13	=13
0D	-i;	2f	-i;>	1a]	.	4a	-ché	2r	.	1dd	-i;
.	.	.	.	.	.	4d	tu	.	.	.	.
.	.	4r	.	.	.	4f	ri-	2a	Per-	.	.
.	.	4d	Per-	.	.	4g	-vil-	.	.	.	.
.	.	4f	-ché	2r	.	2.a	-ges-	4dd	-ché	1r	.
.	.	4f	tu	.	.	.	.	4a	tu	.	.
.	.	4f	ri-	2A	Per-	.	.	4dd	ri-	.	.
.	.	4g	-vol-	.	.	4g	-si	4ee	-vol-	.	.
=14	=14	=14	=14	=14	=14	=14	=14	=14	=14	=14	=14
0r	.	4.a	-ges-	2.d	-ché	2f	Fis-	2.ff	-ges-	1r	.
.	.	8g	.	.	.	.	.	.	.	.	.
.	.	4f	.	.	.	4a	-so	.	.	.	.
.	.	4c	-si	4A	tu	4cc	ne'	4ee	-si	.	.
.	.	2g	Fis-	4B-y	ri-	2b-y	lu-	1dd	Fis-	2r	.
.	.	.	.	4c	-vol-	.	.	.	.	.	.
.	.	4f	-so	[2d	-ges-	2a	-mi	.	.	4r	.
.	.	4f	ne'	.	.	.	.	.	.	4a	Per-
=15	=15	=15	=15	=15	=15	=15	=15	=15	=15	=15	=15
2r	.	4f	lu-	4d]	.	2a	mie-	2a	-so	4dd	-ché
.	.	4e	-mi	4c	-si	.	.	.	.	4a	tu
2G	Per-	2d	mie-	4B-y	Fis-	2g	-i,	2b-y	ne'	4dd	ri-
.	.	.	.	4G	-so,	.	.	.	.	4ee	-vol-
4d	-ché	1d	-i,	4r	.	1r	.	2.a	lu-	2ff	-ges-
4D	tu	.	.	4d	Per-	.	.	.	.	.	.
4F	ri-	.	.	4a	-ché	.	.	.	.	4ff	-si
4G	-vol-	.	.	4d	tu	.	.	4b-y	-mi	[4dd	Fis-
=16	=16	=16	=16	=16	=16	=16	=16	=16	=16	=16	=16
2A	-ges-	0r	.	4f	ri-	4r	.	1a	mie-	4dd]	.
.	.	.	.	4e	-vol-	4e	Per-	.	.	4cc#i	-so
2D	-si	.	.	4f	-ges-	4a	-ché	.	.	2dd	ne'
.	.	.	.	4f	-si	4d	tu	.	.	.	.
2d	Fis-	.	.	2f	fis-	4f	ri-	2a	-i,	2dd	lu-
.	.	.	.	.	.	4g	-vol-	.	.	.	.
4A	-so	.	.	2e	-so	4a	-ges-	4r	.	2ccnXi	-mi
4A	ne'	.	.	.	.	4a	-si	4ee	Per-	.	.
=17	=17	=17	=17	=17	=17	=17	=17	=17	=17	=17	=17
2.G	lu-	1r	.	4r	.	2b-y	Fis-	4gg	-ché	2.dd	mie-
.	.	.	.	4g	ne'	.	.	4g	tu	.	.
.	.	.	.	4g	lu-	4b-y	-so	4b-y	ri-	.	.
4A	-mi	.	.	4e	-mi	4a	ne'	4cc	-vol-	4cc	.
2B-y	mie-	2r	.	2d	mie-	4f	lu-	4dd	-ges-	2b-y	.
.	.	.	.	.	.	4g	-mi	4ee	-si	.	.
2F	-i	4r	.	2c	-i,	2a	mie-	2ff	Fis-	2cc	-i
.	.	4F	ne'	.	.	.	.	.	.	.	.
=18	=18	=18	=18	=18	=18	=18	=18	=18	=18	=18	=18
0r	.	2c	lu-	4r	.	4g	-i,	2ee	-so	0r	.
.	.	.	.	4g	ne'	4e	ne'	.	.	.	.
.	.	2d	-mi	2.f	lu-	4f	lu-	4a	ne'	.	.
.	.	.	.	.	.	4a	-mi	2dd	lu-	.	.
.	.	1A	mie-	.	.	1a	mie-	.	.	.	.
.	.	.	.	4e	-mi	.	.	4cc#X	-mi	.	.
.	.	.	.	2e	mie-	.	.	2cc#i	mie-	.	.
=19	=19	=19	=19	=19	=19	=19	=19	=19	=19	=19	=19
4r	.	4d	-i	2f	-i	4a	-i	2dd	-i	4r	.
2D	Le	2f	Le	.	.	2a	Le	.	.	2dd	Le
.	.	.	.	2r	.	.	.	2r	.	.	.
4A	tue	4e	tue	.	.	4a	tue	.	.	4cc	tue
2B-y	dol-	2d	dol-	1r	.	2f	dol-	1r	.	2b-y	dol-
4F	-ci	4c	-ci	.	.	4f	-ci	.	.	4a	-ci
4G	fa-	4B-y	fa-	.	.	4d	fa-	.	.	4g	fa-
=20	=20	=20	=20	=20	=20	=20	=20	=20	=20	=20	=20
2D	-vil-	2A	-vil-	2r	.	2d	-vil-	2r	.	2f#X	-vil-
2G	-le,	2B-y	-le,	4r	.	4d	-le,	4r	.	4g	-le,
.	.	.	.	2G	Le	2b-y	Le	2gg	Le	2dd	<Le
1r	.	1r	.	.	.	.	.	.	.	.	.
.	.	.	.	4d	tue	4a	tue	4ff	tue	4dd	tue
.	.	.	.	2A	dol-	2a	dol-	2ee	dol-	2cc	dol-
=21	=21	=21	=21	=21	=21	=21	=21	=21	=21	=21	=21
1r	.	1r	.	4B-y	-ci	4f	-ci	4dd	-ci	4b-y	-ci
.	.	.	.	4G	fa-	4g	fa-	4dd	fa-	4b-y	fa-
.	.	.	.	2A	-vil-	2e	-vil-	2cc#X	-vil-	2a	-vil-
2r	.	2r	.	4d	-le,	4f	-le,	2dd	-le,	2a	-le,>
.	.	.	.	2f	Le	2d	Le	.	.	.	.
2BB-y	Le	2B-y	Le	.	.	.	.	4r	.	4r	.
.	.	.	.	4d	tue	4f	tue	[4dd	Le	[4ff	Le
=22	=22	=22	=22	=22	=22	=22	=22	=22	=22	=22	=22
2F	tue	2A	tue	2a	dol-	2f	dol-	4dd]	.	4ff]	.
.	.	.	.	.	.	.	.	4cc	tue	4ff	tue
2G	dol-	2d	dol-	4g	-ci	4b-y	-ci	2b-y	dol-	2dd	dol-
.	.	.	.	4g	fa-	4g	fa-	.	.	.	.
2F	-ci	4.A	-ci	2c	-vil-	2.cc	-vil-	4a	-ci	2ff	-ci
.	.	.	.	.	.	.	.	4a	fa-	.	.
.	.	8B-y	.	.	.	.	.	.	.	.	.
2C	fa-	4c	.	2c	-le,	.	.	[2g	-vil-	2ee-X	fa-
.	.	4G	fa-	.	.	4b-y	.	.	.	.	.
=23	=23	=23	=23	=23	=23	=23	=23	=23	=23	=23	=23
1D	-vil-	2d	-vil-	1r	.	1a	.	4g]	.	1dd	-vil-
.	.	.	.	.	.	.	.	8f#iL	.	.	.
.	.	.	.	.	.	.	.	8eJ	.	.	.
.	.	2d	-le,	.	.	.	.	2f#i	.	.	.
1G	-le,	1r	.	2d	Io	1bnX	-le,	1g	-le,	1dd	-le,
.	.	.	.	4d	va-	.	.	.	.	.	.
.	.	.	.	4d	-gheg-	.	.	.	.	.	.
=24	=24	=24	=24	=24	=24	=24	=24	=24	=24	=24	=24
0r	.	2g	Io	2c	-giar	1r	.	1r	.	0r	.
.	.	4g	va-	2B-y	po-	.	.	.	.	.	.
.	.	4g	-gheg-	.	.	.	.	.	.	.	.
.	.	2f	-giar	4B-y	-tes-	2r	.	2dd	Io	.	.
.	.	.	.	4c	.	.	.	.	.	.	.
.	.	2f	po-	4d	.	2a	Io	4dd	va-	.	.
.	.	.	.	8cL	.	.	.	4dd	-gheg-	.	.
.	.	.	.	8B-yJ	.	.	.	.	.	.	.
=25	=25	=25	=25	=25	=25	=25	=25	=25	=25	=25	=25
0r	.	2f	-tes-	4.A	.	4a	va-	4cc	-giar	1r	.
.	.	.	.	.	.	4a	-gheg-	4cc	po-	.	.
.	.	.	.	8B-y	.	.	.	.	.	.	.
.	.	2e	-si,	2c	.	2g	-giar,	2cc	-tes-	.	.
.	.	1r	.	4G	-si,	2b-y	Io	2dd	-si,	2gg	Io
.	.	.	.	4G	Io	.	.	.	.	.	.
.	.	.	.	4G	va-	4b-y	va-	2dd	Io	4gg	va-
.	.	.	.	4G	-gheg-	4b-y	-gheg-	.	.	4gg	-gheg-
=26	=26	=26	=26	=26	=26	=26	=26	=26	=26	=26	=26
0r	.	0r	.	2d	-giar	2a	-giar	4dd	va-	2ff	-giar
.	.	.	.	.	.	.	.	4dd	-gheg-	.	.
.	.	.	.	2f	po-	2a	po-	4cc	-giar	2ff	po-
.	.	.	.	.	.	.	.	4cc	po-	.	.
.	.	.	.	2c	-tes-	2g	-tes-	2cc	-tes-	2ee	-tes-
.	.	.	.	2G	-si,	2g	-si,	2b-y	-si,	[2dd	-si,
=27	=27	=27	=27	=27	=27	=27	=27	=27	=27	=27	=27
2BB-y	Io	2d	Io	2F	<Io	2b-y	<Io	0r	.	2dd]	.
4BB-y	va-	4d	va-	4f	va-	4b-y	va-	.	.	2r	.
4BB-y	-gheg-	4d	-gheg-	4f	-gheg-	4b-y	-gheg-	.	.	.	.
2F	-giar	2c	-giar	2f	-giar	2a	-giar	.	.	1r	.
2C	po-	2c	po-	2e	po-	2g	po-	.	.	.	.
=28	=28	=28	=28	=28	=28	=28	=28	=28	=28	=28	=28
2G	-tes-	2B-y	-tes-	2d	-tes-	2g	-tes-	1r	.	1r	.
2D	-si	2A	-si,	2d	-si>	2f	-si,>	.	.	.	.
1r	.	4r	.	1r	.	2b-y	Io	2dd	Io	2ff	Io
.	.	4B-y	Io	.	.	.	.	.	.	.	.
.	.	4B-y	va-	.	.	4b-y	va-	4dd	va-	4ff	va-
.	.	4B-y	-gheg-	.	.	4b-y	-gheg-	4dd	-gheg-	4ff	-gheg-
=29	=29	=29	=29	=29	=29	=29	=29	=29	=29	=29	=29
0r	.	2f	-giar	1r	.	2a	-giar	2cc	-giar	2ff	-giar
.	.	2c	po-	.	.	2g	po-	2cc	po-	2ee	po-
.	.	2G	-tes-	2r	.	2g	-tes-	2b-y	-tes-	1dd	-tes-
.	.	4d	-si	4r	.	2f	-si	[2a	-si	.	.
.	.	4f	Mil-	4d	Mil-	.	.	.	.	.	.
=30	=30	=30	=30	=30	=30	=30	=30	=30	=30	=30	=30
1r	.	4f	-le	4d	-le	4r	.	2a]	.	2dd	-si
.	.	4f	bel-	4d	bel-	4a	Mil-	.	.	.	.
.	.	2e	-lez-	2c	-lez-	4a	-le	2r	.	2r	.
.	.	.	.	.	.	4a	bel-	.	.	.	.
4r	.	2d	-ze	2B-y	-ze	2g	-lez-	1r	.	4r	.
4B-y	Mil-	.	.	.	.	.	.	.	.	4dd	Mil-
4B-y	-le	2f	tue,	4d	tue,	2f	-ze	.	.	4dd	-le
4B-y	bel-	.	.	4f	Mil-	.	.	.	.	4dd	bel-
=31	=31	=31	=31	=31	=31	=31	=31	=31	=31	=31	=31
2A	-lez-	2r	.	4f	-le	2a	tue,	0r	.	2cc	-lez-
.	.	.	.	4e	bel-	.	.	.	.	.	.
2G	-ze	4r	.	2g	-lez-	4r	.	.	.	2b-y	-ze
.	.	4d	Mil-	.	.	4b-y	Mil-	.	.	.	.
4B-y	tue,	4d	-le	2f	-ze	4b-y	-le	.	.	2dd	tue,
4B-y	Mil-	4d	bel-	.	.	4b-y	bel-	.	.	.	.
4F	-le-	2c	-lez-	4.f	tu-	2a	-lez-	.	.	2r	.
4F	-bel-	.	.	.	.	.	.	.	.	.	.
.	.	.	.	8e	.	.	.	.	.	.	.
=32	=32	=32	=32	=32	=32	=32	=32	=32	=32	=32	=32
2G	-lez-	2B-y	-ze	2d	-e,	2g	-ze	4r	.	4r	.
.	.	.	.	.	.	.	.	4dd	Mil-	4b-y	Mil-
2B-y	-ze	2d	tue,	2r	.	1f	tue,	4dd	-le	4b-y	-le
.	.	.	.	.	.	.	.	4dd	bel-	4b-y	bel-
2F	tue,	2r	.	2r	.	.	.	2cc	-lez-	2a	-lez-
2r	.	4r	.	4r	.	2r	.	2b-y	-ze	2g	-ze
.	.	4B-y	Mil-	4d	Mil-	.	.	.	.	.	.
=33	=33	=33	=33	=33	=33	=33	=33	=33	=33	=33	=33
0r	.	4B-y	-le	4d	-le	4r	.	2dd	tue,	2f	tue,
.	.	4B-y	bel-	4d	bel-	4f	Mil-	.	.	.	.
.	.	2A	-lez-	2c	-lez-	4f	-le	2r	.	2r	.
.	.	.	.	.	.	4e	bel-	.	.	.	.
.	.	2G	-ze	2B-y	-ze	2g	-lez-	4r	.	4r	.
.	.	.	.	.	.	.	.	4b-y	Mil-	4dd	Mil-
.	.	2B-y	tue,	2d	tue,	2f	-ze	4b-y	-le	4dd	-le
.	.	.	.	.	.	.	.	4b-y	bel-	4dd	bel-
=34	=34	=34	=34	=34	=34	=34	=34	=34	=34	=34	=34
1r	.	4r	.	2r	.	4.f	tu-	2a	-lez-	2cc	-lez-
.	.	4F	<Mil-	.	.	.	.	.	.	.	.
.	.	.	.	.	.	8e	.	.	.	.	.
.	.	4G	-le	1r	.	2d	-e,	2g	-ze	2b-y	-ze
.	.	4A	bel-	.	.	.	.	.	.	.	.
4r	.	2B-y	-lez-	.	.	4r	.	4.f	tu-	1dd	tue,
4D	<Mil-	.	.	.	.	4f	<Mil-	.	.	.	.
.	.	.	.	.	.	.	.	8g	.	.	.
4D	-le	2A	-ze	4r	.	4f	-le	2a	-e	.	.
4D	bel-	.	.	4A	<Mil-	4f	bel-	.	.	.	.
=35	=35	=35	=35	=35	=35	=35	=35	=35	=35	=35	=35
2C	-lez-	2c	tue>	4A	-le	2e	-lez-	2r	.	2r	.
.	.	.	.	4G	bel-	.	.	.	.	.	.
2BB-y	-ze	2f	con	4B-y	-lez-	2d	-ze	2ff	con	2dd	con
.	.	.	.	4B-y	-ze	.	.	.	.	.	.
2F	tue>	2f	oc-	2A	tue>	2a	tue>	1ff	oc-	4cc	oc-
.	.	.	.	.	.	.	.	.	.	4b-y	.
2F	con	2c	-chi	2A	con	2f	con	.	.	4a	.
.	.	.	.	.	.	.	.	.	.	4g	.
=36	=36	=36	=36	=36	=36	=36	=36	=36	=36	=36	=36
2D	oc-	0d	mil-	2A	oc-	4a	oc-	2ff	-chi	2f	.
.	.	.	.	.	.	4a	-chi	.	.	.	.
2G	-chi	.	.	2B-y	-chi	1g	mil-	2.dd	mie-	2b-y	-chi
1D	mil-	.	.	1A	mil-	.	.	.	.	1dd	mil-
.	.	.	.	.	.	.	.	8ccL	.	.	.
.	.	.	.	.	.	.	.	8b-yJ	.	.	.
.	.	.	.	.	.	2f#i	.	2a	.	.	.
=37	=37	=37	=37	=37	=37	=37	=37	=37	=37	=37	=37
0Gl	-le.	0dl	-le.	0Gl	-le.	0gl	-le.	0bnXl	-i.	0ddl	-le.
==	==	==	==	==	==	==	==	==	==	==	==
*-	*-	*-	*-	*-	*-	*-	*-	*-	*-	*-	*-
!!!system-decoration: [*]
!!!YEM:	Claudio Merulo, "Mentre mia stella miri," 1579 (Trm 560c; 11 Sep 2017) Tasso in Music Project (http://www.tassomusic.org) Copyright 2017 Emiliano Ricciardi
!!!RDF**kern: i = editorial accidental
!!!RDF**kern: l = terminal long
!!!ENC: Emiliano Ricciardi
!!!END: 2018
!!!EED: Donnelly, Daniel
!!!EEV: 2018/10/28
!!!YEC: Copyright 2018 Emiliano Ricciardi, All Rights Reserved
!!!ONB: Translated from MusicXML on 2018/10/28 and edited by Craig Stuart Sapp
!!@@BEGIN:	VERSEDATA
!!@SOLERTI:	560
!!@CATALOGNUM:	Trm0560
!!@LAST_MODIFIED: 2020/07/12
!!@TITLE:		Tarquinia, se rimiri
!!@GENRE:		madrigale
!!@MANUSRC:	A<sub>3</sub>, C, E<sub>1</sub>, E<sub>7</sub>, F<sub>2</sub>, V<sub>8</sub>, V<sub>9</sub>, V<sub>13/E1</sub>
!!@PRINTSRC:	8, 9, 11, 12, 13, 15, 20, 24, 33, 67, 141, 145, 166, 169
!!@@BEGIN:	VERSES
!!@ABOUTIT:	A la signora Tarquinia Molza la quale studiando la sfera andava la sera a contemplar le stelle.
!!@ABOUTEN:	To lady Tarquinia Molza who, studying the globe, went to contemplate the stars at night.
!!@EDITOR:	Solerti, Angelo
!!@EDITION_TITLE: Le Rime di Torquato Tasso
!!@EDITION_LOC:	Bologna
!!@EDITION_PUB:	Romagnoli-Dall’Acqua
!!@EDITION_DATE:  1898-1902
!!@EDITION_VOL:	3
!!@EDITION_PAGE:  79
!!@TRANSLATOR:	Emiliano Ricciardi and Amyrose McCue Gill
!!@VERSE:
!!	Tarquinia, se rimiri
!!	I bei celesti giri,
!!	Il cielo esser vorrei;
!!	Perché ne gli occhi miei
!!	Fisso tu rivolgessi
!!	Le tue dolci faville,
!!	Io vagheggiar potessi
!!	Mille bellezze tue con luci mille.
!!@TVERSE:
!!	Tarquinia, if I look upon
!!	The beautiful blue spheres,
!!	The sky I wish to be;
!!	So that to my eyes
!!	Raptly you may turn
!!	Your sweet sparks,
!!	And I may long for
!!	Your thousand beauties with a thousand 	lights.
!!@@END:		VERSES
!!@OTHER_CRIT_ED:   Torquato Tasso, <i>Rime d’amore (secondo il codice
!!		Chigiano L VIII 302)</i>, eds. Franco Gavazzeni and
!!		Vercingetorige Martignone, vol. 4 of <i>Edizione
!!		Nazionale delle opere di Torquato Tasso</i>
!!		(Alessandria: Edizioni Dell’Orso, 2004), 171.
!!@ATTRIBUTION_ABOUT:	Secure
!!		<br>
!!		Among other authoritative sources (see Literary
!!		Sources), this poem appears in the autograph Chigiano
!!		L.VIII.302 (Biblioteca Vaticana, Rome), compiled
!!		around 1584&ndash;85.
!!@DATING:	In or before 1571
!!		<br>
!!		The earliest datable appearance of this poem is in a musical setting by Ferrarese composer Luzzasco Luzzaschi published in 1571 (see Musical Settings). In this setting, the text is subtantially different than in later musical and literary sources (see Literary Variants).
!!@DEDICATEE:	Molza, Tarquinia Molza
!!@DEDICATEE_INFO:	(1542-1617)
!!@COMMENTARY:
!!@@END:		VERSEDATA
!!@@BEGIN:	SETTING
!!@CATALOGNUM:	Trm0560d
!!@RIMETITLE:	Tarquinia, se rimiri
!!@SETTINGTITLE:	Mentre, mia stella, miri
!!@SOLERTI:	560
!!@COMPOSER:	Merulo, Claudio
!!@PRINCEPSFORMAT: anthology
!!@PRINCEPSTITLE:	Corona de madrigali a sei voci
!!@PRINCEPSLOC:	Vineggia
!!@NORMLOC:	Venice
!!@NORMPUB:	Heir of G. Scotto
!!@NORMPUBSHORT:	Scotto
!!@PRINCEPSPUB:	Herede di Scotto
!!@PRINCEPSYEAR:	1579
!!@PRINCEPSRISM:	1579-2
!!@REPRINTS:	
!!@OVOICES:	6
!!@EXTANTVOICES:	6
!!@PARTBOOKS:	
!!@EXTPARTBOOKS:	
!!@OCLEFS:	G2,G2,C2,C3,C3,F3
!!@OMENSURATION:	C
!!@OKEYSIG:	b-
!!@FINAL:	G
!!@TIMPEDITOR:	Donnelly, Daniel
!!@NOTE:		
!!@@END:		SETTING
